X:2
T:Uma bênção antiga
C:Denes Agay, 1970
N:Tradicional
N:Port. James Frederick Spann, 1976
V:1
V:2
V:3 clef=bass
V:4 clef=bass
M:4/4
L:1/8
K:D
%%staves [(1 2)|(3 4)]
[V:1] [!shape_d!D] E |F4 B3 A |F2 F4 D E |F2 F2 B A D E |
w:Tu-a vi-da, a-mi-go, se-ja sem-pre pa-ra o me-
[V:2] [!shape_l!B,] C |D4 D3 C |D2 D4 B, C |D2 D2 D D D D |
[V:3 octave=-2] [!shape_m!f] f |f4 f3 e |f2 f4 b b |b2 b2 b b b b |
[V:4 octave=-2] [!shape_l!B] B|B4 B3 B |B2 B4 f f |b2 a2 g a g g |
%
[V:1] [F6]-F F |B2 c2 d3 c |B2 A2 F3 F |B2 c2 d e d c |
w:lhor._ Que~o sol a-que-ça teu vi-ver, que~a chu-va cai-a le-ve 
[V:2] [C6]-C F |D2 E2 G3 E |D2 E2 D3 D |D2 E2 G G G E |
[V:3] [a6]-a a |[f2] a2 b3 a |f2 a2 a3 a |f2 a2 b c' b a |
[V:4] [f6]-f f |[B2] A2 [G3] A |B2 c2 d3 c |B2 A2 G G G A |
%
[V:1] B2 A2 F3 F |E3 E A3 G |F2 E2 D2 E2 |C6 G2 |
w:no teu lar, e~a-té nos en-con-trar-mos ou-tra vez; que
[V:2] D2 E2 D3 B, |B,3 B, C3 C |D2 C2 B,2 B,2 |^A,6 E2 |
[V:3] g2 a2 b3 f |g3 g a3 e |f2 f2 f2 g2 |f6 b2 |
[V:4] B2 c2 d3 d |e3 e A3 A |B2 c2 d2 c2 |f6 e2 |
%
[V:1] F6 B2 |d4 B2 G2 |c2 A2 F2 A c |B6 B B |
w:Deus, que Deus te se-gu-re nas su-as mãos. Que~o Se-
[V:2] C6 F2 |B4 G2 D2 |A2 F2 C2 F A |F6 F F |
[V:3] [^a6] d'2 |d'4 d'2 b2 |c'2 c'2 a2 c' c' |^d'6 d' d' |
[V:4] f6 b2 |g4 g2 g2 |f2 f2 f2 f f |b6 b b |
%
[V:1] B4 B B B B |^d2 B4 B B |B4 B B c B |^G3/2 B/ B B3-B B |F4 F4 |F6 |]
w:nhor te~a ben-ço-e~e guar-de, Que~o Se-nhor so-bre ti le-van-te~o ros-_to e te dê paz 
[V:2] ^G4 G G G G |F2 F4 F F |^G4 G G G G |^G3/2 F/ F F3-F F |F4 E4 |D6|]
[V:3] ^d'4 d' d' d' d' |^d'2 d'4 d' d' |e'4 e' e' e' e' |b3/2 b/ b b3-b b |b4 ^a4 |b6|]
[V:4] ^g4 g g g g |b2 b4 f f |e4 e e e e |^d3/2 d/ d d3-d d |d4 =c4 |B6|]

%
%%postscript 0 -50 M 20 F0 (stackcount: ) count 3 string cvs exch show show
%

